src/images/icon-docs.svg

<?xml version="1.0" standalone="no"?><!-- Generator: Gravit.io --><svg xmlns="http://www.w3.org/2000/svg" xmlns:xlink="http://www.w3.org/1999/xlink" style="isolation:isolate" viewBox="2 2 64 63.972" width="64" height="63.972"><defs><clipPath id="_clipPath_64SArJRHxHGTV9h0jA8XTejD6oOHuukF"><rect x="2" y="2" width="64" height="63.972"/></clipPath></defs><g clip-path="url(#_clipPath_64SArJRHxHGTV9h0jA8XTejD6oOHuukF)"><g><path d=" M 9.996 11.139 C 10.627 11.139 11.139 10.627 11.139 9.996 L 11.139 3.615 L 3.615 11.139 L 9.996 11.139 Z " fill="rgb(102,102,102)"/><path d=" M 3.142 59.118 L 35.969 59.118 C 35.944 59.07 35.928 59.018 35.903 58.971 C 35.622 58.433 35.37 57.879 35.148 57.314 C 35.112 57.224 35.084 57.131 35.049 57.04 Q 34.76 56.256 34.549 55.447 C 34.525 55.354 34.495 55.262 34.473 55.167 C 34.332 54.58 34.222 53.985 34.145 53.386 C 34.126 53.254 34.114 53.123 34.099 52.99 C 34.027 52.37 33.99 51.746 33.986 51.121 Q 33.986 50.429 34.043 49.75 C 34.056 49.597 34.081 49.446 34.098 49.293 C 34.131 48.994 34.162 48.694 34.212 48.398 C 34.242 48.221 34.284 48.046 34.318 47.87 C 34.371 47.604 34.42 47.335 34.485 47.07 C 34.53 46.888 34.587 46.708 34.638 46.528 C 34.709 46.276 34.778 46.025 34.86 45.778 C 34.92 45.596 34.992 45.417 35.059 45.237 C 35.146 44.998 35.233 44.759 35.332 44.525 C 35.407 44.345 35.493 44.17 35.575 43.993 C 35.68 43.764 35.783 43.536 35.897 43.317 C 35.987 43.142 36.087 42.974 36.183 42.8 C 36.304 42.583 36.424 42.367 36.554 42.157 C 36.658 41.989 36.769 41.826 36.877 41.662 C 37.014 41.457 37.151 41.251 37.296 41.052 C 37.411 40.891 37.535 40.737 37.657 40.581 C 37.809 40.386 37.961 40.195 38.121 40.009 C 38.249 39.859 38.383 39.712 38.516 39.566 C 38.682 39.385 38.85 39.205 39.024 39.03 C 39.164 38.889 39.308 38.753 39.453 38.616 C 39.633 38.448 39.814 38.282 40 38.121 C 40.151 37.992 40.305 37.865 40.457 37.741 Q 40.745 37.512 41.043 37.284 Q 41.287 37.106 41.535 36.941 Q 41.841 36.734 42.156 36.538 Q 42.413 36.378 42.678 36.227 C 42.892 36.105 43.109 35.988 43.329 35.875 C 43.512 35.782 43.695 35.69 43.88 35.602 C 44.108 35.497 44.337 35.399 44.565 35.304 C 44.757 35.224 44.949 35.145 45.146 35.076 C 45.236 35.041 45.321 35.001 45.413 34.968 L 45.413 3.142 C 45.413 2.511 44.901 2 44.27 2 L 13.424 2 L 13.424 9.996 C 13.424 11.889 11.889 13.424 9.996 13.424 L 2 13.424 L 2 57.975 C 2 58.606 2.511 59.118 3.142 59.118 Z  M 21.42 49.979 L 20.278 49.979 C 19.647 49.979 19.135 49.467 19.135 48.836 C 19.135 48.206 19.647 47.694 20.278 47.694 L 21.42 47.694 C 22.051 47.694 22.562 48.206 22.562 48.836 C 22.562 49.467 22.051 49.979 21.42 49.979 Z  M 35.128 38.555 L 16.851 38.555 C 16.22 38.555 15.708 38.044 15.708 37.413 C 15.708 36.782 16.22 36.271 16.851 36.271 L 35.128 36.271 C 35.759 36.271 36.271 36.782 36.271 37.413 C 36.271 38.044 35.759 38.555 35.128 38.555 Z  M 39.698 32.844 L 19.135 32.844 C 18.504 32.844 17.993 32.332 17.993 31.701 C 17.993 31.07 18.504 30.559 19.135 30.559 L 39.698 30.559 C 40.329 30.559 40.84 31.07 40.84 31.701 C 40.84 32.332 40.329 32.844 39.698 32.844 Z  M 39.698 27.132 L 33.986 27.132 C 33.355 27.132 32.844 26.62 32.844 25.989 C 32.844 25.358 33.355 24.847 33.986 24.847 L 39.698 24.847 C 40.329 24.847 40.84 25.358 40.84 25.989 C 40.84 26.62 40.329 27.132 39.698 27.132 Z  M 7.712 19.135 L 39.698 19.135 C 40.329 19.135 40.84 19.647 40.84 20.278 C 40.84 20.909 40.329 21.42 39.698 21.42 L 7.712 21.42 C 7.081 21.42 6.569 20.909 6.569 20.278 C 6.569 19.647 7.081 19.135 7.712 19.135 Z  M 7.712 24.847 L 28.274 24.847 C 28.905 24.847 29.416 25.358 29.416 25.989 C 29.416 26.62 28.905 27.132 28.274 27.132 L 7.712 27.132 C 7.081 27.132 6.569 26.62 6.569 25.989 C 6.569 25.358 7.081 24.847 7.712 24.847 Z  M 7.712 30.559 L 13.424 30.559 C 14.054 30.559 14.566 31.07 14.566 31.701 C 14.566 32.332 14.054 32.844 13.424 32.844 L 7.712 32.844 C 7.081 32.844 6.569 32.332 6.569 31.701 C 6.569 31.07 7.081 30.559 7.712 30.559 Z  M 7.712 36.271 L 11.139 36.271 C 11.77 36.271 12.281 36.782 12.281 37.413 C 12.281 38.044 11.77 38.555 11.139 38.555 L 7.712 38.555 C 7.081 38.555 6.569 38.044 6.569 37.413 C 6.569 36.782 7.081 36.271 7.712 36.271 Z  M 7.712 41.982 L 30.559 41.982 C 31.19 41.982 31.701 42.494 31.701 43.125 C 31.701 43.756 31.19 44.267 30.559 44.267 L 7.712 44.267 C 7.081 44.267 6.569 43.756 6.569 43.125 C 6.569 42.494 7.081 41.982 7.712 41.982 Z  M 7.712 47.694 L 14.566 47.694 C 15.197 47.694 15.708 48.206 15.708 48.836 C 15.708 49.467 15.197 49.979 14.566 49.979 L 7.712 49.979 C 7.081 49.979 6.569 49.467 6.569 48.836 C 6.569 48.206 7.081 47.694 7.712 47.694 Z " fill="rgb(102,102,102)"/><path d=" M 41.84 65.497 C 41.662 65.382 41.481 65.275 41.308 65.154 Q 40.623 64.676 39.989 64.126 C 39.93 64.074 39.864 64.031 39.805 63.978 C 39.327 63.555 38.873 63.105 38.446 62.63 C 38.318 62.489 38.201 62.333 38.078 62.187 C 37.856 61.927 37.628 61.674 37.422 61.399 L 8.854 61.399 L 8.854 64.826 C 8.854 65.457 9.366 65.968 9.996 65.968 L 42.576 65.968 C 42.325 65.826 42.085 65.655 41.84 65.497 Z " fill="rgb(102,102,102)"/><path d=" M 49.715 34.048 C 49.763 34.048 49.81 34.036 49.858 34.033 C 50.401 33.994 50.952 33.986 51.506 33.998 L 51.857 34.01 C 51.993 34.01 52.126 34.01 52.264 34.024 L 52.264 9.996 C 52.264 9.366 51.752 8.854 51.121 8.854 L 47.694 8.854 L 47.694 34.329 C 47.759 34.315 47.825 34.308 47.891 34.295 C 47.991 34.276 48.093 34.261 48.193 34.244 C 48.697 34.156 49.203 34.089 49.715 34.048 Z " fill="rgb(102,102,102)"/><path d=" M 53.244 36.419 L 53.219 36.419 C 52.738 36.353 52.261 36.317 51.786 36.297 C 51.672 36.291 51.558 36.287 51.45 36.284 C 50.968 36.274 50.489 36.284 50.016 36.314 C 49.978 36.314 49.941 36.323 49.902 36.327 C 49.465 36.361 49.033 36.42 48.605 36.493 C 48.483 36.514 48.361 36.536 48.24 36.56 C 47.783 36.65 47.326 36.754 46.878 36.887 C 42.258 38.288 38.599 41.834 37.054 46.408 C 35.539 50.935 36.293 55.915 39.08 59.791 C 41.867 63.667 46.347 65.967 51.121 65.972 C 58.921 65.986 65.403 59.965 65.961 52.185 C 66.52 44.405 60.965 37.519 53.244 36.419 Z  M 52.245 60.348 C 52.239 60.425 52.224 60.502 52.201 60.576 C 52.182 60.646 52.158 60.714 52.126 60.779 C 52.093 60.838 52.055 60.895 52.012 60.949 C 51.964 61.013 51.91 61.072 51.849 61.125 C 51.827 61.144 51.815 61.17 51.791 61.189 L 49.17 63.079 C 48.659 63.426 47.964 63.303 47.603 62.802 C 47.241 62.301 47.343 61.604 47.833 61.228 L 48.186 60.972 C 44.602 59.908 41.879 56.981 41.077 53.329 C 40.275 49.677 41.52 45.878 44.329 43.41 C 44.804 43.012 45.51 43.065 45.92 43.53 C 46.33 43.995 46.294 44.703 45.839 45.124 C 43.691 47.011 42.716 49.904 43.283 52.706 C 43.85 55.509 45.873 57.795 48.586 58.698 L 48.304 58.308 C 47.957 57.796 48.08 57.102 48.581 56.74 C 49.082 56.379 49.78 56.481 50.156 56.971 L 52.048 59.592 C 52.066 59.627 52.082 59.663 52.097 59.7 C 52.176 59.834 52.225 59.983 52.24 60.138 C 52.25 60.178 52.258 60.219 52.264 60.26 C 52.259 60.29 52.253 60.319 52.245 60.348 Z  M 57.915 58.832 C 57.61 59.114 57.177 59.208 56.783 59.079 C 56.389 58.95 56.096 58.617 56.017 58.21 C 55.939 57.803 56.087 57.385 56.405 57.118 C 58.552 55.23 59.526 52.338 58.959 49.536 C 58.391 46.733 56.369 44.448 53.656 43.544 L 53.938 43.935 C 54.192 44.265 54.245 44.707 54.079 45.088 C 53.912 45.469 53.551 45.73 53.137 45.768 C 52.722 45.806 52.32 45.616 52.086 45.271 L 50.195 42.651 C 50.146 42.543 50.097 42.435 50.048 42.327 C 50.025 42.253 50.01 42.176 50.004 42.099 C 49.993 42.061 49.985 42.022 49.979 41.982 C 49.983 41.953 49.989 41.923 49.997 41.894 C 50.004 41.817 50.019 41.74 50.042 41.666 C 50.06 41.596 50.085 41.529 50.116 41.464 C 50.149 41.404 50.187 41.347 50.23 41.293 C 50.278 41.229 50.333 41.17 50.393 41.118 C 50.415 41.098 50.428 41.072 50.452 41.054 L 53.072 39.163 C 53.584 38.816 54.278 38.939 54.64 39.44 C 55.001 39.941 54.899 40.639 54.409 41.015 L 54.056 41.271 C 57.64 42.335 60.362 45.262 61.165 48.913 C 61.967 52.565 60.722 56.364 57.915 58.832 Z " fill="rgb(102,102,102)"/></g></g></svg>

<svg xmlns="http://www.w3.org/2000/svg" style="isolation:isolate" viewBox="2 2 64 63.97" width="64" height="63.97"><defs><clipPath id="a"><path d="M2 2h64v63.97H2z"/></clipPath></defs><g fill="#666" clip-path="url(#a)"><path d="M10 11.14c.63 0 1.14-.51 1.14-1.14V3.62L3.6 11.13H10z"/><path d="M3.14 59.12h32.83l-.07-.15c-.28-.54-.53-1.1-.75-1.66l-.1-.27q-.29-.78-.5-1.6l-.08-.27a16.8 16.8 0 0 1-.32-1.78l-.05-.4c-.07-.62-.11-1.24-.11-1.87q0-.7.05-1.37l.06-.46c.03-.3.06-.6.11-.9l.1-.52.17-.8.16-.54.22-.75.2-.54.27-.72.25-.53c.1-.23.2-.45.32-.67l.28-.52.37-.64c.1-.17.22-.33.33-.5l.42-.6a15.22 15.22 0 0 1 .83-1.04 18.3 18.3 0 0 1 .9-.98 19.69 19.69 0 0 1 1.43-1.29q.28-.24.58-.47l.5-.34.62-.4.52-.31a16.95 16.95 0 0 1 2.47-1.15l.26-.11V3.14c0-.63-.5-1.14-1.14-1.14H13.42v8c0 1.89-1.53 3.42-3.42 3.42H2v44.55c0 .64.51 1.15 1.14 1.15zm18.28-9.14h-1.14a1.14 1.14 0 0 1 0-2.29h1.14a1.14 1.14 0 0 1 0 2.29zm13.7-11.42H16.86a1.14 1.14 0 1 1 0-2.29h18.28a1.14 1.14 0 1 1 0 2.28zm4.58-5.72H19.13a1.14 1.14 0 0 1 0-2.28H39.7a1.14 1.14 0 1 1 0 2.28zm0-5.7h-5.71a1.14 1.14 0 0 1 0-2.3h5.7a1.14 1.14 0 1 1 0 2.3zm-31.99-8H39.7a1.14 1.14 0 0 1 0 2.28H7.7a1.14 1.14 0 1 1 0-2.29zm0 5.7h20.56a1.14 1.14 0 1 1 0 2.3H7.71a1.14 1.14 0 0 1 0-2.3zm0 5.72h5.71a1.14 1.14 0 0 1 0 2.28h-5.7a1.14 1.14 0 0 1 0-2.28zm0 5.71h3.43a1.14 1.14 0 1 1 0 2.28H7.7a1.14 1.14 0 1 1 0-2.28zm0 5.71h22.85a1.14 1.14 0 0 1 0 2.29H7.7a1.14 1.14 0 1 1 0-2.29zm0 5.71h6.86a1.14 1.14 0 0 1 0 2.29H7.7a1.14 1.14 0 0 1 0-2.29zM41.84 65.5c-.18-.12-.36-.22-.53-.35q-.69-.47-1.32-1.02l-.19-.15c-.47-.42-.93-.88-1.35-1.35l-.37-.44c-.22-.26-.45-.52-.66-.8H8.85v3.44c0 .63.52 1.14 1.15 1.14h32.58c-.25-.14-.5-.31-.74-.47zM49.72 34.05l.14-.02c.54-.04 1.1-.04 1.65-.03l.35.01.4.01V10c0-.63-.5-1.15-1.14-1.15H47.7v25.48l.2-.03.3-.06c.5-.08 1.01-.15 1.53-.2z"/><path d="M53.24 36.42h-.02a15.22 15.22 0 0 0-3.2-.1h-.12a14.32 14.32 0 0 0-3.02.57 14.85 14.85 0 1 0 6.37-.47zm-1 23.93c0 .07-.02.15-.04.23l-.07.2a1.26 1.26 0 0 1-.28.34l-.06.07-2.62 1.89a1.14 1.14 0 0 1-1.34-1.85l.36-.26a10.27 10.27 0 0 1-3.86-17.56 1.14 1.14 0 0 1 1.5 1.71A7.99 7.99 0 0 0 48.6 58.7l-.29-.4a1.14 1.14 0 0 1 1.86-1.33l1.89 2.62.05.11c.08.13.13.28.14.44l.02.12c0 .03 0 .06-.02.09zm5.67-1.52a1.14 1.14 0 1 1-1.5-1.71 7.99 7.99 0 0 0-2.75-13.58l.28.4a1.14 1.14 0 1 1-1.85 1.33l-1.9-2.62-.14-.32a1.04 1.04 0 0 1-.05-.23.9.9 0 0 1-.02-.12c0-.03 0-.06.02-.09 0-.07.02-.15.04-.22l.08-.2a1.21 1.21 0 0 1 .27-.35l.06-.07 2.62-1.89a1.14 1.14 0 0 1 1.34 1.86l-.35.25a10.27 10.27 0 0 1 3.85 17.56z"/></g></svg>
